X:331
T:B331-  Now at Last the Riddle Is Expounded
Q:1/4=120
L:1/4
M:C|
K:Am
Aed(c/B/)|c(d/c/)Bc|^G2E2|eagf|\
e(d/c/)g(f/e/)|d2dg|e3(^f/e/)|^dB2(e/d/)|\
e4||bb^g(f/e/)|aaf(e/d/)|g2e2|\
fgad|B2ee|c(B/A/)ff|dge2|\
d(c/B/)c3/2c/|cBBA|A3/2^G/A2|]

